material/.icons/material/tumble-dryer-off.svg

<svg xmlns="http://www.w3.org/2000/svg" viewBox="0 0 24 24"><path d="M22.11 21.46L2.39 1.73 1.11 3 4 5.89V20c0 1.11.89 2 2 2h12c.58 0 1.1-.25 1.46-.65l1.38 1.38 1.27-1.27M12 20c-3.31 0-6-2.69-6-6 0-1.68.7-3.2 1.82-4.29l.79.79h-.5c-.26 1.79.21 3.14 1.31 4.21.58.62.82 1.41.58 2.79h1.89c.27-1.79-.21-3.14-1.31-4.21-.36-.38-.58-.85-.63-1.45l4.08 4.08c.08.43.08.94-.03 1.58h1.61l.68.68A5.956 5.956 0 0112 20m-.75-11.95C11.5 8 11.75 8 12 8c3.31 0 6 2.69 6 6 0 .25 0 .5-.05.75L20 16.8V4a2 2 0 00-2-2H6c-.24 0-.46.05-.67.13l5.92 5.92M10 4c.55 0 1 .45 1 1s-.45 1-1 1-1-.45-1-1 .45-1 1-1z"/></svg>

<?xml version="1.0" encoding="UTF-8"?><!DOCTYPE svg PUBLIC "-//W3C//DTD SVG 1.1//EN" "http://www.w3.org/Graphics/SVG/1.1/DTD/svg11.dtd"><svg xmlns="http://www.w3.org/2000/svg" xmlns:xlink="http://www.w3.org/1999/xlink" version="1.1" id="mdi-tumble-dryer-off" width="24" height="24" viewBox="0 0 24 24"><path d="M22.11 21.46L2.39 1.73L1.11 3L4 5.89V20C4 21.11 4.89 22 6 22H18C18.58 22 19.1 21.75 19.46 21.35L20.84 22.73L22.11 21.46M12 20C8.69 20 6 17.31 6 14C6 12.32 6.7 10.8 7.82 9.71L8.61 10.5H8.11C7.85 12.29 8.32 13.64 9.42 14.71C10 15.33 10.24 16.12 10 17.5H11.89C12.16 15.71 11.68 14.36 10.58 13.29C10.22 12.91 10 12.44 9.95 11.84L14.03 15.92C14.11 16.35 14.11 16.86 14 17.5H15.61L16.29 18.18C15.2 19.3 13.69 20 12 20M11.25 8.05C11.5 8 11.75 8 12 8C15.31 8 18 10.69 18 14C18 14.25 18 14.5 17.95 14.75L20 16.8V4C20 2.9 19.11 2 18 2H6C5.76 2 5.54 2.05 5.33 2.13L11.25 8.05M10 4C10.55 4 11 4.45 11 5S10.55 6 10 6 9 5.55 9 5 9.45 4 10 4Z" /></svg>
